svgs/light/crop.svg

<svg xmlns="http://www.w3.org/2000/svg" viewBox="0 0 512 512"><!--! Font Awesome Pro 6.6.0 by @fontawesome - https://fontawesome.com License - https://fontawesome.com/license (Commercial License) Copyright 2024 Fonticons, Inc. --><path d="M416 118.6l91.3-91.3c6.2-6.2 6.2-16.4 0-22.6s-16.4-6.2-22.6 0L393.4 96 160 96l0 32 201.4 0L128 361.4 128 16c0-8.8-7.2-16-16-16s-16 7.2-16 16l0 80L16 96c-8.8 0-16 7.2-16 16s7.2 16 16 16l80 0 0 240c0 26.5 21.5 48 48 48l208 0 0-32-201.4 0L384 150.6 384 496c0 8.8 7.2 16 16 16s16-7.2 16-16l0-80 80 0c8.8 0 16-7.2 16-16s-7.2-16-16-16l-80 0 0-265.4z"/></svg>

<svg xmlns="http://www.w3.org/2000/svg" viewBox="0 0 512 512"><!--! Font Awesome Pro 6.4.2 by @fontawesome - https://fontawesome.com License - https://fontawesome.com/license (Commercial License) Copyright 2023 Fonticons, Inc. --><path d="M416 118.6l91.3-91.3c6.2-6.2 6.2-16.4 0-22.6s-16.4-6.2-22.6 0L393.4 96 160 96v32l201.4 0L128 361.4V16c0-8.8-7.2-16-16-16s-16 7.2-16 16V96H16c-8.8 0-16 7.2-16 16s7.2 16 16 16H96V368c0 26.5 21.5 48 48 48H352V384H150.6L384 150.6 384 496c0 8.8 7.2 16 16 16s16-7.2 16-16V416h80c8.8 0 16-7.2 16-16s-7.2-16-16-16H416l0-265.4z"/></svg>
